src/assets/icons/media-reading-writing,simple,journal.svg

<svg width="48" height="48" viewBox="0 0 48 48" fill="none" xmlns="http://www.w3.org/2000/svg">
<rect opacity="0.2" x="5" y="5" width="38" height="38" rx="4" fill="black"/>
<rect opacity="0.2" x="11" y="10" width="28" height="28" rx="4" fill="black"/>
<mask id="mask0_13:44" style="mask-type:alpha" maskUnits="userSpaceOnUse" x="11" y="10" width="28" height="28">
<rect x="11" y="10" width="28" height="28" rx="4" fill="#9FA4A9"/>
</mask>
<g mask="url(#mask0_13:44)">
<path opacity="0.2" d="M23 21H34" stroke="black" stroke-width="4" stroke-linecap="round"/>
<rect opacity="0.6" x="21" y="13" width="15" height="4" rx="2" fill="black"/>
<path fill-rule="evenodd" clip-rule="evenodd" d="M10.7378 16.6316C10.7373 16.8672 10.7373 17.1127 10.7373 17.3684V19.5789H12.211C13.0249 19.5789 13.6847 20.2387 13.6847 21.0526C13.6847 21.8665 13.0249 22.5263 12.211 22.5263H10.7373V25.4737H12.211C13.0249 25.4737 13.6847 26.1335 13.6847 26.9474C13.6847 27.7613 13.0249 28.4211 12.211 28.4211H10.7373V30.6316C10.7373 30.8873 10.7373 31.1328 10.7378 31.3684H12.211C13.0249 31.3684 13.6847 32.0282 13.6847 32.8421C13.6847 33.656 13.0249 34.3158 12.211 34.3158H10.8419C10.947 35.2454 11.1579 35.9136 11.5807 36.4569C11.7841 36.7181 12.0192 36.9532 12.2805 37.1566C13.3641 38 14.9446 38 18.1057 38V10C14.9446 10 13.3641 10 12.2805 10.8434C12.0192 11.0468 11.7841 11.2818 11.5807 11.5431C11.1579 12.0864 10.947 12.7546 10.8419 13.6842H12.211C13.0249 13.6842 13.6847 14.344 13.6847 15.1579C13.6847 15.9718 13.0249 16.6316 12.211 16.6316H10.7378Z" fill="black"/>
<g opacity="0.2">
<path d="M9 15.4286C9 14.6396 9.74619 14 10.6667 14H12.3333C13.2538 14 14 14.6396 14 15.4286C14 16.2175 13.2538 16.8571 12.3333 16.8571H10.6667C9.74619 16.8571 9 16.2175 9 15.4286Z" fill="black"/>
<path d="M9 32.5714C9 31.7825 9.74619 31.1429 10.6667 31.1429H12.3333C13.2538 31.1429 14 31.7825 14 32.5714C14 33.3604 13.2538 34 12.3333 34H10.6667C9.74619 34 9 33.3604 9 32.5714Z" fill="black"/>
<path d="M9 26.8571C9 26.0682 9.74619 25.4286 10.6667 25.4286H12.3333C13.2538 25.4286 14 26.0682 14 26.8571C14 27.6461 13.2538 28.2857 12.3333 28.2857H10.6667C9.74619 28.2857 9 27.6461 9 26.8571Z" fill="black"/>
<path d="M9 21.1429C9 20.3539 9.74619 19.7143 10.6667 19.7143H12.3333C13.2538 19.7143 14 20.3539 14 21.1429C14 21.9318 13.2538 22.5714 12.3333 22.5714H10.6667C9.74619 22.5714 9 21.9318 9 21.1429Z" fill="black"/>
</g>
</g>
</svg>

<svg xmlns="http://www.w3.org/2000/svg" width="48" height="48" fill="none" viewBox="0 0 48 48">
  <rect width="38" height="38" x="5" y="5" fill="#000" opacity=".2" rx="4"/>
  <rect width="28" height="28" x="11" y="10" fill="#000" opacity=".2" rx="4"/>
  <mask id="a" width="28" height="28" x="11" y="10" maskUnits="userSpaceOnUse" style="mask-type:alpha">
    <rect width="28" height="28" x="11" y="10" fill="#9FA4A9" rx="4"/>
  </mask>
  <g mask="url(#a)">
    <path stroke="#000" stroke-linecap="round" stroke-width="4" d="M23 21h11" opacity=".2"/>
    <rect width="15" height="4" x="21" y="13" fill="#000" opacity=".6" rx="2"/>
    <path fill="#000" fill-rule="evenodd" d="M10.738 16.632V19.578h1.473a1.474 1.474 0 010 2.948h-1.474v2.948h1.474a1.474 1.474 0 010 2.947h-1.474v2.947h1.474a1.474 1.474 0 010 2.948h-1.37c.106.93.317 1.598.74 2.14.203.262.438.497.7.7 1.083.844 2.664.844 5.825.844V10c-3.161 0-4.742 0-5.826.843a4.002 4.002 0 00-.7.7c-.422.543-.633 1.212-.738 2.141h1.369a1.474 1.474 0 010 2.948h-1.473z" clip-rule="evenodd"/>
    <g opacity=".2">
      <path fill="#000" d="M9 15.429c0-.79.746-1.429 1.667-1.429h1.666c.92 0 1.667.64 1.667 1.429s-.746 1.428-1.667 1.428h-1.666c-.92 0-1.667-.64-1.667-1.428zM9 32.571c0-.788.746-1.428 1.667-1.428h1.666c.92 0 1.667.64 1.667 1.428 0 .79-.746 1.429-1.667 1.429h-1.666C9.747 34 9 33.36 9 32.571zM9 26.857c0-.789.746-1.428 1.667-1.428h1.666c.92 0 1.667.64 1.667 1.428 0 .79-.746 1.429-1.667 1.429h-1.666c-.92 0-1.667-.64-1.667-1.429zM9 21.143c0-.79.746-1.429 1.667-1.429h1.666c.92 0 1.667.64 1.667 1.429s-.746 1.428-1.667 1.428h-1.666c-.92 0-1.667-.64-1.667-1.428z"/>
    </g>
  </g>
</svg>
